X:15841
%11174
T:Morgiana in Ireland. JC.067
M:6/8
L:1/8
Q:1/4=120
S:John Clare,Poet,Helpston. (1793-1864)
R:Jig
O:England
A:Northamptonshire
N:
Z:P Headford
K:Cmaj
G2Gc2c|dcde2A|G2Gc2d|e2f ecA|G2Gc2c|dcd e2a|!
agf efd|c2d ecA|g2g gfe|a2bc'3|gag gfe|a2b c'ge|!
gag gfe|aba abc'|gaf efd|c2d ecA|cBc e<gz2
%Error : Bar 16 is 7/8 not 6/8
|dcd f<az2
%Error : Bar 17 is 7/8 not 6/8
|!
cBce2f|e2f ecA|cBc e<gz2
%Error : Bar 20 is 7/8 not 6/8
|f<az2e<gz2
%Error : Bar 21 is 1/1 not 6/8
|a<c'z2e<gz2
%Error : Bar 22 is 1/1 not 6/8
|c2d ecA|]
W:Should be transposed from D to E, but abc.tlz wouldn't do it for me. C

%Error : Malformed note : expecting a-g or A-G

%Error : Unrecognized character: o

%Error : Malformed note : expecting a-g or A-G

%Error : Unrecognized character: l

%Error : Unrecognized character: t

%Error : Unrecognized character: r

%Error : Unrecognized character: n

%Error : Unrecognized character: p

%Error : Unrecognized character: o

%Error : Unrecognized character: r

%Error : Unrecognized character: o

%Error : Unrecognized character: m

%Error : Unrecognized character: t

%Error : Unrecognized character: o

%Error : Malformed note : expecting a-g or A-G

%Error : Unrecognized character: t

%Error : Malformed note : expecting a-g or A-G

%Error : Unrecognized character: t

%Error : Unrecognized character: l

%Error : Unrecognized character: w

%Error : Unrecognized character: o

%Error : Malformed note : expecting a-g or A-G

%Error : Unrecognized character: l

%Error : Unrecognized character: n

%Error : Unrecognized character: '

%Error : Unrecognized character: t

%Error : Unrecognized character: o

%Error : Unrecognized character: i

%Error : Unrecognized character: t

%Error : Unrecognized character: o

%Error : Unrecognized character: r

%Error : Unrecognized character: m

%Error : Malformed note : expecting a-g or A-G
FPc ad gssdc e C  D, a gaBz c c  e d B,


